modules/hawcons-filled/icons/icon-14-trophy-one.svg

<?xml version="1.0" encoding="UTF-8" standalone="no"?>
<svg width="32px" height="32px" viewBox="0 0 32 32" version="1.1" xmlns="http://www.w3.org/2000/svg" xmlns:xlink="http://www.w3.org/1999/xlink" xmlns:sketch="http://www.bohemiancoding.com/sketch/ns">
    <!-- Generator: Sketch 3.0.3 (7891) - http://www.bohemiancoding.com/sketch -->
    <title>icon 14 trophy one</title>
    <desc>Created with Sketch.</desc>
    <defs></defs>
    <g id="Page-1" stroke="none" stroke-width="1" fill="none" fill-rule="evenodd" sketch:type="MSPage">
        <g id="icon-14-trophy-one" sketch:type="MSArtboardGroup" fill="#929292">
            <path d="M16,26 L16,20.9999977 C12.6907305,20.9971322 10,18.3150447 10,15.0069348 L10,15 C6.5,13.5 6,6 6,6 L10,6 L22.5080872,6 L23,6 L27,6 C27,6 26.5,13.5 23,15 L23,15 L23,15.0069348 C23,18.3165338 20.3142002,20.9971381 17,20.9999977 L17,20.9999979 L17,26 L21,26 L21,27 L12,27 L12,26 L16,26 L16,26 L16,26 Z M10,7 L10,13.8999939 C7.6541748,12.2206421 7.1000061,7 7.1000061,7 L10,7 L10,7 Z M22.9824219,7 L22.9824219,13.8803101 C25.3282471,12.2009583 25.8828125,7 25.8828125,7 L22.9824219,7 L22.9824219,7 Z M16.997,18 L16,18 L16,12 L14,12 L14,11 C15.6502977,11 16,10.1045695 16,8.99999999 L16.997,8.99999999 L16.997,18 L16.997,18 Z" id="trophy-one" sketch:type="MSShapeGroup"></path>
        </g>
    </g>
</svg>

<svg width="32" height="32" viewBox="0 0 32 32" xmlns="http://www.w3.org/2000/svg"><path d="M16 26v-5c-3.31-.003-6-2.685-6-5.993V15c-3.5-1.5-4-9-4-9h21s-.5 7.5-4 9v.007c0 3.31-2.686 5.99-6 5.993v5h4v1h-9v-1h4zM10 7v6.9C7.654 12.22 7.1 7 7.1 7H10zm12.982 0v6.88c2.346-1.679 2.9-6.88 2.9-6.88h-2.9zm-5.985 11H16v-6h-2v-1c1.65 0 2-.895 2-2h.997v9z" fill="#929292" fill-rule="evenodd"/></svg>
